X:1
T:James Gibb editions
T:Lord of our life - Barnby
%%score [ ( 1 2 ) ( 3 4 ) ]
L:1/8
Q:1/4=180
M:3/2
K:Eb
V:1 treble nm="Midi_74"
V:2 treble 
V:3 bass nm="Midi_74"
V:4 bass 
V:1
"^Philip Pusey\n(1799-1855)""^Cloisters (11 11. 11 5)""^Lord of our life""^Joseph Barnby\n(1838-96)" G4 G4 G4 | %1
 G8 G4 | B2 A2 G4 F4 | F4 G8 || G4 G4 G4 | G8 e4 | d6 c2 B2 =A2 | =A4 B8 || B4 B4 B4 | c8 c4 | %10
 d6 d2 c2 d2 | d4 e8 || e4 c4 A4 | F12 | E12 || A12 | G12 |] %17
V:2
 E4 E4 E4 | E8 E4 | E2 E2 E4 !courtesy!=D4 | D4 E8 || F4 F4 F4 | E8 G4 | ^F6 F2 F2 F2 | ^F4 G8 || %8
 G4 G4 G4 | (G4 F4) F4 | F6 F2 F2 F2 | F4 E8 || E4 E4 E4 | (E4- D8) | E12 || E12 | E12 |] %17
V:3
 B,4 B,4 B,4 | C8 C4 | _D2 C2 B,4 A,4 | A,4 G,8 || =B,4 B,4 B,4 | C8 C4 | C4 =A,4 D2 C2 | C4 B,8 || %8
 _D4 D4 D4 | %9
 C8"^1 Lord of our life, and God of our salvation,\nStar of our night, and hope of every nation,\nHear and receive thy Church's supplication,\nLord God Almighty.\n\n2 See round thine ark the hungry billows curling;\nSee how thy foes their banners are unfurling;\nLord, while their darts envenomed they are hurling,\nThou canst preserve us.\n\n3 Lord, thou canst help when earthly armour faileth,\nLord, thou canst save when deadly sin assaileth;\nChrist, o'er thy rock nor death nor hell prevaileth;\nGrant us thy peace, Lord.\n\n4 Peace in our hearts, our evil thoughts assuaging;\nPeace in thy Church, where brothers are engaging;\nPeace, when the world its busy war is waging:\nCalm thy foes' raging.\n\n5 Grant us thy help till backward they are driven,\nGrant them thy truth, that they may be forgiven;\nGrant peace on earth, and, after we have striven,\nPeace in thy heaven." C4 | %10
 C4 =B,4 =A,2 B,2 | =B,4 C8 || C4 A,4 C4 | (B,8 A,4) | G,12 || C12 | B,12 |] %17
V:4
 E,4 E,4 E,4 | C,8 C,4 | G,,2 A,,2 B,,4 B,,4 | E,4 E,8 || D,4 D,4 D,4 | C,8 C,4 | %6
 D,6 .D,2 D,2 D,2 | G,4 G,8 || E,4 E,4 E,4 | A,,8- A,4 | G,6 G,2 G,2 G,2 | C,4 C,8 || %12
 A,,4 A,,4 A,,4 | B,,12 | E,12 || A,,12 | E,12 |] %17

